svgs/light/laptop.svg

<svg xmlns="http://www.w3.org/2000/svg" viewBox="0 0 640 512"><!--! Font Awesome Pro 6.6.0 by @fontawesome - https://fontawesome.com License - https://fontawesome.com/license (Commercial License) Copyright 2024 Fonticons, Inc. --><path d="M512 64L128 64c-17.7 0-32 14.3-32 32l0 256-32 0L64 96c0-35.3 28.7-64 64-64l384 0c35.3 0 64 28.7 64 64l0 256-32 0 0-256c0-17.7-14.3-32-32-32zM76.8 448l486.4 0c20.3 0 37.4-13.5 42.9-32L33.9 416c5.5 18.5 22.7 32 42.9 32zM0 403.2C0 392.6 8.6 384 19.2 384l601.6 0c10.6 0 19.2 8.6 19.2 19.2c0 42.4-34.4 76.8-76.8 76.8L76.8 480C34.4 480 0 445.6 0 403.2z"/></svg>

<svg xmlns="http://www.w3.org/2000/svg" viewBox="0 0 640 512"><!--! Font Awesome Pro 6.4.0 by @fontawesome - https://fontawesome.com License - https://fontawesome.com/license (Commercial License) Copyright 2023 Fonticons, Inc. --><path d="M512 64H128c-17.7 0-32 14.3-32 32V352H64V96c0-35.3 28.7-64 64-64H512c35.3 0 64 28.7 64 64V352H544V96c0-17.7-14.3-32-32-32zM76.8 448H563.2c20.3 0 37.4-13.5 42.9-32H33.9c5.5 18.5 22.7 32 42.9 32zM0 403.2C0 392.6 8.6 384 19.2 384H620.8c10.6 0 19.2 8.6 19.2 19.2c0 42.4-34.4 76.8-76.8 76.8H76.8C34.4 480 0 445.6 0 403.2z"/></svg>
